icons/diff-ignored-24.svg

<svg width="24" height="24" viewBox="0 0 24 24">
  <path
    d="M3.75 2C2.7835 2 2 2.7835 2 3.75V20.25C2 21.2165 2.7835 22 3.75 22H20.25C21.2165 22 22 21.2165 22 20.25V3.75C22 2.7835 21.2165 2 20.25 2H3.75ZM3.5 3.75C3.5 3.61193 3.61193 3.5 3.75 3.5H20.25C20.3881 3.5 20.5 3.61193 20.5 3.75V20.25C20.5 20.3881 20.3881 20.5 20.25 20.5H3.75C3.61193 20.5 3.5 20.3881 3.5 20.25V3.75ZM8.23748 14.9831C7.94459 15.276 7.94459 15.7509 8.23748 16.0438C8.53038 16.3367 9.00525 16.3367 9.29814 16.0438L16.325 9.01688C16.6179 8.72399 16.6179 8.24912 16.325 7.95622C16.0321 7.66333 15.5573 7.66333 15.2644 7.95622L8.23748 14.9831Z"
  />
</svg>

<svg xmlns="http://www.w3.org/2000/svg" width="24" height="24" viewBox="0 0 24 24"><path d="M3.75 2A1.75 1.75 0 0 0 2 3.75v16.5c0 .966.784 1.75 1.75 1.75h16.5A1.75 1.75 0 0 0 22 20.25V3.75A1.75 1.75 0 0 0 20.25 2H3.75ZM3.5 3.75a.25.25 0 0 1 .25-.25h16.5a.25.25 0 0 1 .25.25v16.5a.25.25 0 0 1-.25.25H3.75a.25.25 0 0 1-.25-.25V3.75Zm4.737 11.233a.75.75 0 0 0 1.061 1.06l7.027-7.026a.75.75 0 0 0-1.06-1.06l-7.028 7.026Z"/></svg>
